collections/ionicons/filled/keypad.svg

<svg xmlns="http://www.w3.org/2000/svg" viewBox="0 0 512 512" width="20" height="20"><path d="M256 400a48 48 0 1048 48 48 48 0 00-48-48zm0-128a48 48 0 1048 48 48 48 0 00-48-48zm0-128a48 48 0 1048 48 48 48 0 00-48-48zm0-128a48 48 0 1048 48 48 48 0 00-48-48zm128 256a48 48 0 1048 48 48 48 0 00-48-48zm0-128a48 48 0 1048 48 48 48 0 00-48-48zm0-128a48 48 0 1048 48 48 48 0 00-48-48zM128 272a48 48 0 1048 48 48 48 0 00-48-48zm0-128a48 48 0 1048 48 48 48 0 00-48-48zm0-128a48 48 0 1048 48 48 48 0 00-48-48z"/></svg>

<svg xmlns="http://www.w3.org/2000/svg" viewBox="0 0 512 512" width="20" height="20"><path d="M256 400a48 48 0 1048 48 48 48 0 00-48-48zM256 272a48 48 0 1048 48 48 48 0 00-48-48zM256 144a48 48 0 1048 48 48 48 0 00-48-48zM256 16a48 48 0 1048 48 48 48 0 00-48-48zM384 272a48 48 0 1048 48 48 48 0 00-48-48zM384 144a48 48 0 1048 48 48 48 0 00-48-48zM384 16a48 48 0 1048 48 48 48 0 00-48-48zM128 272a48 48 0 1048 48 48 48 0 00-48-48zM128 144a48 48 0 1048 48 48 48 0 00-48-48zM128 16a48 48 0 1048 48 48 48 0 00-48-48z"/></svg>
